public/img/ol-brand/overleaf-o.svg

<svg width="136" height="157" xmlns="http://www.w3.org/2000/svg"><path d="M37.205 39.652C14.822 53.982 0 77.339 0 102.326 0 132.522 24.48 157 54.681 157c30.198 0 54.674-24.478 54.674-54.674 0-23.34-14.626-43.276-35.204-51.111-3.958-1.505-12.556-4.213-19.421-3.635-9.806 6.234-21.751 19.044-27.411 31.809 8.416-10.093 21.537-14.488 33.17-12.619 17.126 2.777 30.208 17.638 30.208 35.551 0 19.896-16.126 36.021-36.016 36.021-10.962 0-20.785-4.896-27.388-12.619C17.516 114.299 15 101.91 16.975 89.809c6.927-42.375 57.233-66.53 94.636-75.799-12.207 6.458-34.227 17.074-49.626 28.63 44.924 17.341 52.184-20.517 73.217-37.459C114.038-3.07 37.33-6.117 37.205 39.652z" fill="#4F9C45" fill-rule="evenodd"/></svg>

<?xml version="1.0" encoding="UTF-8" standalone="no"?>
<svg width="136px" height="157px" viewBox="0 0 136 157" version="1.1" xmlns="http://www.w3.org/2000/svg" xmlns:xlink="http://www.w3.org/1999/xlink">
  <g id="Page-1" stroke="none" stroke-width="1" fill="none" fill-rule="evenodd">
    <g id="overleaf" fill="#4F9C45">
      <g id="Group">
        <path d="M37.205,39.652 C14.822,53.982 0,77.339 0,102.326 C0,132.522 24.48,157 54.681,157 C84.879,157 109.355,132.522 109.355,102.326 C109.355,78.986 94.729,59.05 74.151,51.215 C70.193,49.71 61.595,47.002 54.73,47.58 C44.924,53.814 32.979,66.624 27.319,79.389 C35.735,69.296 48.856,64.901 60.489,66.77 C77.615,69.547 90.697,84.408 90.697,102.321 C90.697,122.217 74.571,138.342 54.681,138.342 C43.719,138.342 33.896,133.446 27.293,125.723 C17.516,114.299 15,101.91 16.975,89.809 C23.902,47.434 74.208,23.279 111.611,14.01 C99.404,20.468 77.384,31.084 61.985,42.64 C106.909,59.981 114.169,22.123 135.202,5.181 C114.038,-3.07 37.33,-6.117 37.205,39.652 Z" id="Fill-1"></path>
      </g>
    </g>
  </g>
</svg>
